ids-wordpress/site-IdS/assets/images/icones redes sociais/whats.svg

<svg width="29" height="29" viewBox="0 0 29 29" fill="none" xmlns="http://www.w3.org/2000/svg">
<path d="M15.3164 0C15.3887 0.0120686 15.4609 0.0478512 15.5332 0.0478516C16.5455 0.108104 17.534 0.301606 18.498 0.59082C21.402 1.47055 23.7882 3.10954 25.6318 5.51953C27.0778 7.39934 27.9699 9.5204 28.3193 11.8701C28.3796 12.2677 28.4274 12.6532 28.4756 13.0508V14.7256C28.4635 14.8099 28.4398 14.9069 28.4277 14.9912C28.3072 15.7624 28.2345 16.5459 28.0537 17.293C27.186 20.703 25.2702 23.4144 22.3662 25.3906C19.438 27.391 16.172 28.1141 12.6533 27.6924C11.0025 27.4996 9.43591 26.9932 7.96582 26.21C7.76096 26.1015 7.59158 26.1015 7.38672 26.1738C6.01304 26.6197 4.63931 27.0535 3.26562 27.4873C2.16904 27.8368 1.08454 28.1984 0 28.5479C0.0240798 28.4154 0.0358889 28.2708 0.0839844 28.1504C0.831065 25.9212 1.59048 23.6918 2.34961 21.4746C2.446 21.2095 2.4346 21.004 2.29004 20.751C0.566805 17.7263 0.0484682 14.5089 0.735352 11.1348C1.41018 7.80887 3.1328 5.09711 5.7959 2.98828C7.74809 1.44581 9.95379 0.505717 12.4121 0.15625C12.8097 0.096016 13.1952 0.0481882 13.5928 0H15.3164ZM18.666 2.98828C16.6537 2.21717 14.5807 2.0363 12.46 2.38574C10.761 2.66292 9.207 3.31439 7.78516 4.27832C6.30298 5.29054 5.12123 6.57933 4.22949 8.13379C2.84369 10.5439 2.4106 13.135 2.85645 15.8584C3.13359 17.5694 3.79583 19.124 4.7959 20.5459C4.8923 20.6905 4.9167 20.8118 4.85645 20.9805C4.48292 22.0529 4.12125 23.1376 3.75977 24.21C3.66342 24.487 3.57909 24.764 3.4707 25.0771C3.57899 25.0531 3.63904 25.0407 3.69922 25.0166C5.00068 24.6069 6.29067 24.1972 7.58008 23.7754C7.85705 23.6791 8.07422 23.6911 8.32715 23.8477C10.8337 25.354 13.533 25.8971 16.4131 25.415C19.4016 24.9209 21.8477 23.4501 23.7275 21.0762C25.6073 18.7022 26.4272 15.9787 26.1982 12.9541C26.0295 10.7732 25.2824 8.80903 23.9932 7.0498C22.6194 5.16991 20.8351 3.81977 18.666 2.98828ZM8.95312 7.84473C9.30252 7.55558 9.68837 7.51923 10.1582 7.56738L10.1826 7.5918C10.785 7.42313 11.0627 7.80843 11.2676 8.35059C11.5447 9.08567 11.8573 9.80952 12.1826 10.5205C12.3753 10.9421 12.3275 11.2913 12.0625 11.6406C11.8336 11.9418 11.6046 12.219 11.3516 12.4961C11.1467 12.713 11.1347 12.9305 11.2793 13.1836C12.2554 14.7862 13.5331 16.0755 15.2441 16.8828C15.4849 17.0032 15.7257 17.1117 15.9785 17.208C16.3159 17.3526 16.4973 17.3048 16.7383 17.0156C17.0636 16.618 17.3891 16.2082 17.7266 15.8105C17.9917 15.4852 18.1238 15.425 18.4854 15.5938C19.4372 16.0275 20.3772 16.4849 21.3291 16.9307C21.5218 17.027 21.5703 17.1839 21.5703 17.3887C21.5824 19.0034 20.6909 19.8839 19.04 20.3418C18.3652 20.5346 17.7018 20.4373 17.0391 20.2324C15.8101 19.8468 14.5812 19.4492 13.4727 18.7744C11.7735 17.7381 10.4352 16.3286 9.27832 14.7139C8.69996 13.9186 8.15804 13.099 7.84473 12.1592C7.30247 10.5806 7.74814 8.86904 8.95312 7.84473Z" fill="white"/>
</svg>

<svg xmlns="http://www.w3.org/2000/svg" width="29" height="29" fill="none"><path fill="#fff" d="M15.316 0c.073.012.145.048.217.048 1.013.06 2.001.254 2.965.543 2.904.88 5.29 2.519 7.134 4.929a13.51 13.51 0 0 1 2.687 6.35c.06.398.108.783.157 1.18v1.676c-.012.084-.036.18-.048.265-.12.771-.194 1.555-.374 2.302-.868 3.41-2.784 6.121-5.688 8.098-2.928 2-6.194 2.723-9.713 2.301-1.65-.192-3.217-.699-4.687-1.482a.656.656 0 0 0-.58-.036c-1.373.446-2.747.88-4.12 1.313-1.097.35-2.181.711-3.266 1.06.024-.132.036-.276.084-.397.747-2.229 1.506-4.458 2.266-6.675a.774.774 0 0 0-.06-.724C.567 17.726.048 14.509.735 11.135c.675-3.326 2.398-6.038 5.06-8.147A13.565 13.565 0 0 1 12.413.156c.398-.06.783-.108 1.18-.156h1.724Zm3.35 2.988c-2.012-.77-4.085-.952-6.206-.602-1.699.277-3.253.928-4.675 1.892A11.588 11.588 0 0 0 4.23 8.134c-1.385 2.41-1.818 5.001-1.373 7.724.278 1.711.94 3.266 1.94 4.688.096.145.12.266.06.434-.373 1.073-.735 2.158-1.096 3.23-.097.277-.18.554-.29.867.109-.024.169-.036.23-.06 1.3-.41 2.59-.82 3.88-1.242.277-.096.494-.084.747.073 2.507 1.506 5.206 2.05 8.086 1.567 2.989-.494 5.435-1.965 7.314-4.339 1.88-2.374 2.7-5.097 2.471-8.122-.169-2.18-.916-4.145-2.205-5.904-1.374-1.88-3.158-3.23-5.327-4.062ZM8.953 7.845c.35-.29.735-.326 1.205-.278l.025.025c.602-.169.88.216 1.085.759.277.735.59 1.459.915 2.17.192.421.145.77-.12 1.12-.23.3-.458.578-.711.855-.205.217-.217.434-.073.688.976 1.602 2.254 2.892 3.965 3.699a8 8 0 0 0 .735.325c.337.145.518.097.76-.192.325-.398.65-.808.988-1.205.265-.326.397-.386.758-.217.952.434 1.892.89 2.844 1.337.193.096.241.253.241.458.012 1.614-.88 2.495-2.53 2.953-.675.193-1.338.095-2-.11-1.23-.385-2.459-.783-3.567-1.458-1.7-1.036-3.038-2.445-4.195-4.06-.578-.795-1.12-1.615-1.433-2.555-.543-1.578-.097-3.29 1.108-4.314Z"/></svg>
